X: 100032
M: C|
L: 1/8
K: Bm
|: v(Bc)de f2ea | (cA)(eA) (aA)(ec) | (Bc)de (fa)ea | cAac B/B/Bf2 :|
vB/B/B (b^a) bff^g | (=ab)af (de)fd | (ef)ab (fa)ea | cAac B/B/Bf2 |


